X: 1
T: The Ciler
M: 4/4
L: 1/8
R: reel
D: Jason O'Rourke &amp; Ruadhrai O'Kane - Roguery Road
K: Gmaj
d3B c2dc|BGBd gedc|Bcde =fA^cd|gedB cedc|
BGGF ~G3B|d^cdB cABc|d^cde =f^ffg|fdcA G2Bc:|
|:dggf ~g3e|dc~c2 dcBc|d=ffe ~f3e|dc~c2 dcBc|
dggf gfga|bgag gfde|=f3d cA~A2|BdcA G2Bc:|
